; generated by PrusaSlicer 2.3.0+linux-x64 on 2021-07-08 at 23:04:29 UTC

; 

; external perimeters extrusion width = 0.60mm
; perimeters extrusion width = 0.50mm
; infill extrusion width = 0.50mm
; solid infill extrusion width = 0.50mm
; top infill extrusion width = 0.45mm
; first layer extrusion width = 0.42mm

M73 P0 R129
M73 Q0 S132
M201 X1000 Y1000 Z200 E5000 ; sets maximum accelerations, mm/sec^2
M203 X200 Y200 Z12 E120 ; sets maximum feedrates, mm/sec
M204 P1250 R1250 T1250 ; sets acceleration (P, T) and retract acceleration (R), mm/sec^2
M205 X8.00 Y8.00 Z0.40 E4.50 ; sets the jerk limits, mm/sec
M205 S0 T0 ; sets the minimum extruding and travel feed rate, mm/sec
M107
;TYPE:Custom
M862.3 P "MK3S" ; printer model check
M862.1 P0.4 ; nozzle diameter check
M115 U3.9.2 ; tell printer latest fw version
G90 ; use absolute coordinates
M83 ; extruder relative mode
M104 S230 ; set extruder temp
M140 S85 ; set bed temp
M190 S85 ; wait for bed temp
M109 S230 ; wait for extruder temp
G28 W ; home all without mesh bed level
G80 ; mesh bed leveling
G1 Y-3.0 F1000.0 ; go outside print area
G92 E0.0
G1 X60.0 E9.0 F1000.0 ; intro line
G1 X100.0 E12.5 F1000.0 ; intro line
G92 E0.0
M221 S95

; Don't change E values below. Excessive value can damage the printer.

M907 E538 ; set extruder motor current
G21 ; set units to millimeters
G90 ; use absolute coordinates
M83 ; use relative distances for extrusion
M900 K0.08 ; Filament gcode LA 1.5
M900 K45 ; Filament gcode LA 1.0
;LAYER_CHANGE
;Z:0.2
;HEIGHT:0.2
;BEFORE_LAYER_CHANGE
G92 E0.0
;0.2


G1 E-1.40000 F2100.000
G1 Z0.200 F10800.000
;AFTER_LAYER_CHANGE
;0.2
G1 Z0.400
G1 X102.523 Y43.863
G1 Z0.200
G1 E1.40000 F2100.000
M204 S1000
;TYPE:Skirt
;WIDTH:0.42
G1 F1200.000
G1 X102.914 Y42.737 E0.03738
G1 X103.295 Y42.025 E0.02533
G1 X103.772 Y41.368 E0.02545
G1 X104.587 Y40.551 E0.03618
G1 X105.243 Y40.073 E0.02544
G1 X105.947 Y39.693 E0.02509
G1 X107.047 Y39.307 E0.03654
G1 X107.823 Y39.164 E0.02473
G1 X141.466 Y39.123 E1.05486
G1 X142.734 Y39.257 E0.03999
G1 X143.626 Y39.516 E0.02913
G1 X144.770 Y40.081 E0.03999
G1 X145.821 Y40.919 E0.04213
G1 X146.638 Y41.923 E0.04059
G1 X147.080 Y42.723 E0.02866
G1 X147.494 Y43.933 E0.04011
G1 X147.646 Y45.196 E0.03987
G1 X147.649 Y164.694 E3.74678
G1 X147.477 Y166.137 E0.04557
G1 X147.086 Y167.263 E0.03738
G1 X146.705 Y167.975 E0.02533
G1 X146.228 Y168.632 E0.02545
G1 X145.410 Y169.451 E0.03630
G1 X144.757 Y169.927 E0.02533
G1 X144.046 Y170.310 E0.02533
G1 X142.950 Y170.694 E0.03642
G1 X142.155 Y170.838 E0.02533
G1 X108.530 Y170.877 E1.05427
G1 X107.091 Y170.705 E0.04545
G1 X105.961 Y170.313 E0.03749
G1 X105.237 Y169.923 E0.02580
G1 X104.260 Y169.157 E0.03892
G1 X103.703 Y168.551 E0.02580
G1 X103.233 Y167.870 E0.02592
G1 X102.703 Y166.748 E0.03892
G1 X102.483 Y165.955 E0.02580
G1 X102.352 Y164.774 E0.03726
G1 X102.351 Y45.306 E3.74582
G1 X102.516 Y43.923 E0.04369
; printing object dingdong-demo-standoff v1.stl id:0 copy 1
;WIPE_START
G1 F8640.000
G1 X102.914 Y42.737 E-0.28879
G1 X103.295 Y42.025 E-0.18651
G1 X103.772 Y41.368 E-0.18739
G1 X104.587 Y40.551 E-0.26648
G1 X105.243 Y40.073 E-0.18738
G1 X105.947 Y39.693 E-0.18477
G1 X106.064 Y39.652 E-0.02867
;WIPE_END
G1 E-0.07000 F2100.000
G1 Z0.400 F10800.000
G1 X116.647 Y75.904
G1 Z0.200
G1 E1.40000 F2100.000
;TYPE:Perimeter
G1 F1200.000
G1 X117.007 Y75.776 E0.01199
G1 X117.395 Y75.712 E0.01233
G1 X117.734 Y75.715 E0.01063
G1 X118.182 Y75.804 E0.01430
G1 X118.565 Y75.969 E0.01308
G1 X118.947 Y76.202 E0.01403
G1 X119.265 Y76.512 E0.01392
G1 X119.457 Y76.792 E0.01064
G1 X119.619 Y77.136 E0.01194
G1 X119.724 Y77.590 E0.01461
G1 X119.724 Y78.061 E0.01478
G1 X119.616 Y78.515 E0.01462
G1 X119.435 Y78.896 E0.01322
G1 X119.177 Y79.282 E0.01457
G1 X118.873 Y79.570 E0.01313
G1 X118.581 Y79.762 E0.01095
G1 X118.215 Y79.919 E0.01247
G1 X117.738 Y80.016 E0.01527
G1 X117.242 Y80.003 E0.01557
G1 X116.817 Y79.901 E0.01369
G1 X116.499 Y79.762 E0.01089
G1 X116.081 Y79.479 E0.01583
G1 X115.756 Y79.135 E0.01485
G1 X115.575 Y78.821 E0.01134
G1 X115.414 Y78.367 E0.01509
G1 X115.352 Y77.921 E0.01413
G1 X115.395 Y77.508 E0.01304
G1 X115.538 Y77.047 E0.01511
G1 X115.676 Y76.779 E0.00947
G1 X115.936 Y76.429 E0.01366
G1 X116.217 Y76.166 E0.01208
G1 X116.596 Y75.935 E0.01390
G1 X116.792 Y76.257 F10800.000
;TYPE:External perimeter
G1 F1200.000
G1 X117.102 Y76.142 E0.01035
G1 X117.424 Y76.089 E0.01026
G1 X117.695 Y76.092 E0.00849
G1 X118.069 Y76.166 E0.01195
G1 X118.392 Y76.305 E0.01101
G1 X118.714 Y76.502 E0.01185
G1 X118.975 Y76.756 E0.01143
G1 X119.129 Y76.980 E0.00852
G1 X119.261 Y77.260 E0.00971
G1 X119.347 Y77.633 E0.01199
G1 X119.347 Y78.017 E0.01205
G1 X119.259 Y78.390 E0.01200
G1 X119.107 Y78.709 E0.01109
G1 X118.887 Y79.037 E0.01238
G1 X118.638 Y79.273 E0.01076
G1 X118.401 Y79.428 E0.00887
G1 X118.102 Y79.557 E0.01022
G1 X117.705 Y79.638 E0.01271
G1 X117.291 Y79.628 E0.01296
G1 X116.938 Y79.542 E0.01141
G1 X116.681 Y79.431 E0.00877
G1 X116.327 Y79.190 E0.01344
G1 X116.060 Y78.908 E0.01217
G1 X115.919 Y78.663 E0.00887
G1 X115.782 Y78.277 E0.01282
G1 X115.732 Y77.914 E0.01149
G1 X115.766 Y77.584 E0.01042
G1 X115.888 Y77.190 E0.01292
G1 X115.997 Y76.979 E0.00746
G1 X116.218 Y76.681 E0.01162
G1 X116.447 Y76.467 E0.00981
G1 X116.741 Y76.288 E0.01080
G1 X116.817 Y75.928 F10800.000
;WIPE_START
G1 F8640.000
G1 X117.102 Y76.142 E-0.08988
G1 X117.424 Y76.089 E-0.07554
G1 X117.695 Y76.092 E-0.06255
G1 X118.069 Y76.166 E-0.08799
G1 X118.392 Y76.305 E-0.08107
G1 X118.714 Y76.502 E-0.08725
G1 X118.975 Y76.756 E-0.08415
G1 X119.129 Y76.980 E-0.06273
G1 X119.261 Y77.260 E-0.07151
G1 X119.347 Y77.633 E-0.08830
G1 X119.347 Y78.017 E-0.08876
G1 X119.259 Y78.390 E-0.08834
G1 X119.107 Y78.709 E-0.08165
G1 X118.887 Y79.037 E-0.09120
G1 X118.638 Y79.273 E-0.07925
G1 X118.401 Y79.428 E-0.06529
G1 X118.224 Y79.504 E-0.04453
;WIPE_END
G1 E-0.07000 F2100.000
G1 Z0.400 F10800.000
G1 X111.088 Y77.590
G1 Z0.200
G1 E1.40000 F2100.000
;TYPE:Perimeter
G1 F1200.000
G1 X111.088 Y78.061 E0.01478
G1 X110.980 Y78.515 E0.01462
G1 X110.799 Y78.896 E0.01322
G1 X110.541 Y79.282 E0.01457
G1 X110.237 Y79.570 E0.01313
G1 X109.945 Y79.762 E0.01095
G1 X109.579 Y79.919 E0.01247
G1 X109.102 Y80.016 E0.01527
G1 X108.606 Y80.003 E0.01557
G1 X108.181 Y79.901 E0.01369
G1 X107.863 Y79.762 E0.01089
G1 X107.445 Y79.479 E0.01583
G1 X107.120 Y79.135 E0.01485
G1 X106.939 Y78.821 E0.01134
G1 X106.778 Y78.367 E0.01509
G1 X106.716 Y77.921 E0.01413
G1 X106.759 Y77.508 E0.01304
G1 X106.902 Y77.047 E0.01511
G1 X107.040 Y76.779 E0.00947
G1 X107.300 Y76.429 E0.01366
G1 X107.581 Y76.166 E0.01208
G1 X108.011 Y75.904 E0.01579
G1 X108.371 Y75.776 E0.01199
G1 X108.759 Y75.712 E0.01233
G1 X109.098 Y75.715 E0.01063
G1 X109.546 Y75.804 E0.01430
G1 X109.929 Y75.969 E0.01308
G1 X110.311 Y76.202 E0.01403
G1 X110.629 Y76.512 E0.01392
G1 X110.821 Y76.792 E0.01064
G1 X110.983 Y77.136 E0.01194
G1 X111.075 Y77.532 E0.01273
G1 X110.707 Y77.617 F10800.000
;TYPE:External perimeter
G1 F1200.000
G1 X110.711 Y78.017 E0.01256
G1 X110.623 Y78.390 E0.01199
G1 X110.471 Y78.709 E0.01109
G1 X110.251 Y79.037 E0.01238
G1 X110.002 Y79.273 E0.01076
G1 X109.765 Y79.428 E0.00887
G1 X109.466 Y79.557 E0.01022
G1 X109.069 Y79.638 E0.01271
G1 X108.655 Y79.628 E0.01296
G1 X108.302 Y79.542 E0.01141
G1 X108.045 Y79.431 E0.00877
G1 X107.691 Y79.190 E0.01344
G1 X107.424 Y78.908 E0.01217
G1 X107.283 Y78.663 E0.00887
G1 X107.146 Y78.277 E0.01282
G1 X107.096 Y77.914 E0.01149
G1 X107.130 Y77.584 E0.01042
G1 X107.252 Y77.190 E0.01292
G1 X107.361 Y76.979 E0.00746
G1 X107.582 Y76.681 E0.01162
G1 X107.811 Y76.467 E0.00981
G1 X108.174 Y76.246 E0.01334
G1 X108.466 Y76.142 E0.00971
G1 X108.788 Y76.089 E0.01026
G1 X109.059 Y76.092 E0.00849
G1 X109.433 Y76.166 E0.01195
G1 X109.756 Y76.305 E0.01101
G1 X110.078 Y76.502 E0.01185
G1 X110.339 Y76.756 E0.01143
G1 X110.493 Y76.980 E0.00852
G1 X110.625 Y77.260 E0.00971
G1 X110.694 Y77.558 E0.00959
G1 X111.074 Y77.776 F10800.000
;WIPE_START
G1 F8640.000
G1 X110.711 Y78.017 E-0.10603
G1 X110.623 Y78.390 E-0.08833
G1 X110.471 Y78.709 E-0.08165
G1 X110.251 Y79.037 E-0.09120
G1 X110.002 Y79.273 E-0.07925
G1 X109.765 Y79.428 E-0.06529
G1 X109.466 Y79.557 E-0.07525
G1 X109.069 Y79.638 E-0.09358
G1 X108.655 Y79.628 E-0.09547
G1 X108.302 Y79.542 E-0.08404
G1 X108.045 Y79.431 E-0.06455
G1 X107.691 Y79.190 E-0.09895
G1 X107.424 Y78.908 E-0.08960
G1 X107.283 Y78.663 E-0.06533
G1 X107.146 Y78.277 E-0.09440
G1 X107.112 Y78.033 E-0.05705
;WIPE_END
G1 E-0.07000 F2100.000
G1 Z0.400 F10800.000
G1 X109.102 Y48.012
G1 Z0.200
G1 E1.40000 F2100.000
;TYPE:Perimeter
G1 F1200.000
G1 X108.606 Y47.999 E0.01557
G1 X108.181 Y47.897 E0.01369
G1 X107.863 Y47.758 E0.01089
G1 X107.445 Y47.475 E0.01583
G1 X107.120 Y47.131 E0.01485
G1 X106.939 Y46.817 E0.01134
G1 X106.778 Y46.363 E0.01509
G1 X106.716 Y45.917 E0.01413
G1 X106.759 Y45.504 E0.01304
G1 X106.902 Y45.043 E0.01511
G1 X107.040 Y44.775 E0.00947
G1 X107.300 Y44.425 E0.01366
G1 X107.581 Y44.162 E0.01208
G1 X108.011 Y43.900 E0.01579
G1 X108.371 Y43.772 E0.01198
G1 X108.759 Y43.708 E0.01233
G1 X109.098 Y43.711 E0.01063
G1 X109.546 Y43.800 E0.01430
G1 X109.929 Y43.965 E0.01308
G1 X110.311 Y44.198 E0.01403
G1 X110.629 Y44.508 E0.01392
G1 X110.821 Y44.788 E0.01064
G1 X110.983 Y45.132 E0.01194
G1 X111.088 Y45.586 E0.01461
G1 X111.088 Y46.057 E0.01478
G1 X110.980 Y46.511 E0.01462
G1 X110.799 Y46.892 E0.01322
G1 X110.541 Y47.278 E0.01457
G1 X110.237 Y47.566 E0.01313
G1 X109.945 Y47.758 E0.01095
G1 X109.579 Y47.915 E0.01247
G1 X109.161 Y48.000 E0.01339
G1 X109.085 Y47.631 F10800.000
;TYPE:External perimeter
G1 F1200.000
G1 X108.655 Y47.624 E0.01348
G1 X108.302 Y47.538 E0.01141
G1 X108.045 Y47.427 E0.00877
G1 X107.691 Y47.186 E0.01344
G1 X107.424 Y46.904 E0.01217
G1 X107.283 Y46.659 E0.00887
G1 X107.146 Y46.273 E0.01282
G1 X107.096 Y45.910 E0.01149
G1 X107.130 Y45.580 E0.01042
G1 X107.252 Y45.186 E0.01292
G1 X107.361 Y44.975 E0.00746
G1 X107.582 Y44.677 E0.01162
G1 X107.811 Y44.463 E0.00981
G1 X108.174 Y44.242 E0.01334
G1 X108.466 Y44.138 E0.00971
G1 X108.788 Y44.085 E0.01026
G1 X109.059 Y44.088 E0.00849
G1 X109.433 Y44.162 E0.01195
G1 X109.756 Y44.301 E0.01101
G1 X110.078 Y44.498 E0.01185
G1 X110.339 Y44.752 E0.01143
G1 X110.493 Y44.976 E0.00852
G1 X110.625 Y45.256 E0.00971
G1 X110.711 Y45.629 E0.01199
G1 X110.711 Y46.013 E0.01205
G1 X110.623 Y46.386 E0.01200
G1 X110.471 Y46.705 E0.01109
G1 X110.251 Y47.033 E0.01238
G1 X110.002 Y47.269 E0.01076
G1 X109.765 Y47.424 E0.00887
G1 X109.466 Y47.553 E0.01022
G1 X109.144 Y47.619 E0.01030
G1 X108.916 Y47.993 F10800.000
;WIPE_START
G1 F8640.000
G1 X108.655 Y47.624 E-0.11285
G1 X108.302 Y47.538 E-0.08404
G1 X108.045 Y47.427 E-0.06455
G1 X107.691 Y47.186 E-0.09895
G1 X107.424 Y46.904 E-0.08960
G1 X107.283 Y46.659 E-0.06533
G1 X107.146 Y46.273 E-0.09440
G1 X107.096 Y45.910 E-0.08464
G1 X107.130 Y45.580 E-0.07675
G1 X107.252 Y45.186 E-0.09514
G1 X107.361 Y44.975 E-0.05496
G1 X107.582 Y44.677 E-0.08558
G1 X107.811 Y44.463 E-0.07221
G1 X108.174 Y44.242 E-0.09824
G1 X108.466 Y44.138 E-0.07149
G1 X108.788 Y44.085 E-0.07555
G1 X108.813 Y44.086 E-0.00573
;WIPE_END
G1 E-0.07000 F2100.000
G1 Z0.400 F10800.000
G1 X115.352 Y45.917
G1 Z0.200
G1 E1.40000 F2100.000
;TYPE:Perimeter
G1 F1200.000
G1 X115.395 Y45.504 E0.01304
G1 X115.538 Y45.043 E0.01511
G1 X115.676 Y44.775 E0.00947
G1 X115.936 Y44.425 E0.01366
G1 X116.217 Y44.162 E0.01208
G1 X116.647 Y43.900 E0.01579
G1 X117.007 Y43.772 E0.01198
G1 X117.395 Y43.708 E0.01233
G1 X117.734 Y43.711 E0.01063
G1 X118.182 Y43.800 E0.01430
G1 X118.565 Y43.965 E0.01308
G1 X118.947 Y44.198 E0.01403
G1 X119.265 Y44.508 E0.01392
G1 X119.457 Y44.788 E0.01064
G1 X119.619 Y45.132 E0.01194
G1 X119.724 Y45.586 E0.01461
G1 X119.724 Y46.057 E0.01478
G1 X119.616 Y46.511 E0.01462
G1 X119.435 Y46.892 E0.01322
G1 X119.177 Y47.278 E0.01457
G1 X118.873 Y47.566 E0.01313
G1 X118.581 Y47.758 E0.01095
G1 X118.215 Y47.915 E0.01247
G1 X117.738 Y48.012 E0.01527
G1 X117.242 Y47.999 E0.01557
G1 X116.817 Y47.897 E0.01369
G1 X116.499 Y47.758 E0.01089
G1 X116.081 Y47.475 E0.01583
G1 X115.756 Y47.131 E0.01485
G1 X115.575 Y46.817 E0.01134
G1 X115.414 Y46.363 E0.01509
G1 X115.360 Y45.976 E0.01225
G1 X115.733 Y45.924 F10800.000
;TYPE:External perimeter
G1 F1200.000
G1 X115.766 Y45.580 E0.01084
G1 X115.888 Y45.186 E0.01292
G1 X115.997 Y44.975 E0.00746
G1 X116.218 Y44.677 E0.01162
G1 X116.447 Y44.463 E0.00981
G1 X116.810 Y44.242 E0.01334
G1 X117.102 Y44.138 E0.00971
G1 X117.424 Y44.085 E0.01026
G1 X117.695 Y44.088 E0.00849
G1 X118.069 Y44.162 E0.01195
G1 X118.392 Y44.301 E0.01101
G1 X118.714 Y44.498 E0.01185
G1 X118.975 Y44.752 E0.01143
G1 X119.129 Y44.976 E0.00852
G1 X119.261 Y45.256 E0.00971
G1 X119.347 Y45.629 E0.01199
G1 X119.347 Y46.013 E0.01205
G1 X119.259 Y46.386 E0.01200
G1 X119.107 Y46.705 E0.01109
G1 X118.887 Y47.033 E0.01238
G1 X118.638 Y47.269 E0.01076
G1 X118.401 Y47.424 E0.00887
G1 X118.102 Y47.553 E0.01022
G1 X117.705 Y47.634 E0.01271
G1 X117.291 Y47.624 E0.01296
G1 X116.938 Y47.538 E0.01141
G1 X116.681 Y47.427 E0.00877
G1 X116.327 Y47.186 E0.01344
G1 X116.060 Y46.904 E0.01217
G1 X115.919 Y46.659 E0.00887
G1 X115.782 Y46.273 E0.01282
G1 X115.742 Y45.984 E0.00918
G1 X115.431 Y45.757 F10800.000
;WIPE_START
G1 F8640.000
G1 X115.766 Y45.580 E-0.09339
G1 X115.888 Y45.186 E-0.09514
G1 X115.997 Y44.975 E-0.05496
G1 X116.218 Y44.677 E-0.08558
G1 X116.447 Y44.463 E-0.07221
G1 X116.810 Y44.242 E-0.09824
G1 X117.102 Y44.138 E-0.07149
G1 X117.424 Y44.085 E-0.07555
G1 X117.695 Y44.088 E-0.06254
G1 X118.069 Y44.162 E-0.08799
G1 X118.392 Y44.301 E-0.08107
G1 X118.714 Y44.498 E-0.08725
G1 X118.975 Y44.752 E-0.08415
G1 X119.129 Y44.976 E-0.06273
G1 X119.261 Y45.256 E-0.07151
G1 X119.347 Y45.629 E-0.08830
G1 X119.347 Y45.880 E-0.05790
;WIPE_END
G1 E-0.07000 F2100.000
G1 Z0.400 F10800.000
G1 X117.395 Y162.072
G1 Z0.200
G1 E1.40000 F2100.000
;TYPE:Perimeter
G1 F1200.000
G1 X117.734 Y162.075 E0.01063
G1 X118.182 Y162.164 E0.01430
G1 X118.565 Y162.329 E0.01308
G1 X118.947 Y162.562 E0.01403
G1 X119.265 Y162.872 E0.01392
G1 X119.457 Y163.152 E0.01064
G1 X119.619 Y163.496 E0.01194
G1 X119.724 Y163.950 E0.01461
G1 X119.724 Y164.421 E0.01478
G1 X119.616 Y164.875 E0.01462
G1 X119.435 Y165.256 E0.01322
G1 X119.177 Y165.642 E0.01457
G1 X118.873 Y165.930 E0.01313
G1 X118.581 Y166.122 E0.01095
G1 X118.215 Y166.279 E0.01247
G1 X117.738 Y166.376 E0.01527
G1 X117.242 Y166.363 E0.01557
G1 X116.817 Y166.261 E0.01369
G1 X116.499 Y166.122 E0.01089
G1 X116.081 Y165.839 E0.01583
G1 X115.756 Y165.495 E0.01485
G1 X115.575 Y165.181 E0.01134
G1 X115.414 Y164.727 E0.01509
G1 X115.352 Y164.281 E0.01413
G1 X115.395 Y163.868 E0.01304
G1 X115.538 Y163.407 E0.01511
G1 X115.676 Y163.139 E0.00947
G1 X115.936 Y162.789 E0.01366
G1 X116.217 Y162.526 E0.01208
G1 X116.647 Y162.264 E0.01578
G1 X117.007 Y162.136 E0.01199
G1 X117.336 Y162.082 E0.01045
G1 X117.695 Y162.452 F10800.000
;TYPE:External perimeter
G1 F1200.000
G1 X118.069 Y162.526 E0.01195
G1 X118.392 Y162.665 E0.01101
G1 X118.714 Y162.862 E0.01185
G1 X118.975 Y163.116 E0.01143
G1 X119.129 Y163.340 E0.00852
G1 X119.261 Y163.620 E0.00971
G1 X119.347 Y163.993 E0.01199
G1 X119.347 Y164.377 E0.01205
G1 X119.259 Y164.750 E0.01200
G1 X119.107 Y165.069 E0.01109
G1 X118.887 Y165.397 E0.01239
G1 X118.638 Y165.633 E0.01076
G1 X118.401 Y165.788 E0.00887
G1 X118.102 Y165.917 E0.01022
G1 X117.705 Y165.998 E0.01271
G1 X117.291 Y165.988 E0.01296
G1 X116.938 Y165.902 E0.01141
G1 X116.681 Y165.791 E0.00877
G1 X116.327 Y165.550 E0.01344
G1 X116.060 Y165.268 E0.01217
G1 X115.919 Y165.023 E0.00887
G1 X115.782 Y164.637 E0.01282
G1 X115.732 Y164.274 E0.01149
G1 X115.766 Y163.944 E0.01042
G1 X115.888 Y163.550 E0.01292
G1 X115.997 Y163.339 E0.00746
G1 X116.218 Y163.041 E0.01162
G1 X116.447 Y162.827 E0.00981
G1 X116.810 Y162.606 E0.01334
G1 X117.102 Y162.502 E0.00971
G1 X117.424 Y162.449 E0.01026
G1 X117.635 Y162.451 E0.00661
G1 X117.919 Y162.143 F10800.000
;WIPE_START
G1 F8640.000
G1 X118.069 Y162.526 E-0.10163
G1 X118.392 Y162.665 E-0.08107
G1 X118.714 Y162.862 E-0.08725
G1 X118.975 Y163.116 E-0.08415
G1 X119.129 Y163.340 E-0.06274
